X:6099
T:Gateman's Reel
C:Jim Magill
R:reel
M:4/4
L:1/8
K:D
A2|f3g f2e2|d2A2 A2ga|b2g2 ecAc|d2c2 B2A2|
f3g f2e2|d2A2 A2ga|bgec A2c2|d4 d2:|
K:A
|:e2|a2ga fece|a2ga f2e2|Aceg aecA|d2B2 B2g2|
a2ga fece|a2ga f2e2|a3g a2ed|c2A2 A2:|
